icon-svg/sonos-bookshelf-vertical.svg

<svg xmlns="http://www.w3.org/2000/svg" viewBox="0 0 24 24"><path fill="#44739e" d="m10.612 19.837-.1-.014v.089l.107.02.007.086.106.014-.006-.089.09.015v-.094l-.09-.013-.008-.087-.107-.021Zm-.935-.088.275.049v-.122l-.275-.055Zm2.539 1.421-4.769-.885v-.14l4.753.9h.01m0 .392-4.763-.875v-.149l4.763.894Zm-.069.211a.2.2 0 0 1-.171.039l-4.363-.861c-.069-.02-.12-.109-.15-.171l4.743.913a.14.14 0 0 1-.059.082m-3.543-1.99a.53.53 0 0 0 .38.333l-1.532-.281-.01-.25Zm-1.162-.921v-.109l4.763.8v.109Zm3.632 1.101a.6.6 0 0 0-.139-.262 3 3 0 0 0-.161-.11l1.432.251v.292Zm-.439.451c.04.009-.03 0 0 0a.38.38 0 0 0 .41-.2l.039.009 1.12.209v.262Zm-.211-.441a.235.235 0 0 1 .271-.261.34.34 0 0 1 .26.342.235.235 0 0 1-.271.228.33.33 0 0 1-.261-.308m-.87-.172a.23.23 0 0 1 .259-.26.336.336 0 0 1 .262.341.236.236 0 0 1-.261.241.33.33 0 0 1-.26-.322m2.653 1.065v.151l-4.753-.881v-.152ZM8.576 19.37l-1.142-.189v-.282l1.472.25a.36.36 0 0 0-.33.221m.38-.1a.33.33 0 0 1 .26.34.24.24 0 0 1-.26.242.346.346 0 0 1-.271-.322.235.235 0 0 1 .271-.261m3.241-.1v.136l-4.763-.813-.01-.133Zm-.01-1.201v.129l-4.763-.651v-.01l-.01-.129Zm-4.783-1.965 4.773.526h.01v.019h-.01v.1l-4.773-.528Zm0-.648v-.119l4.773.462v.119Zm4.773.864v.171l-4.773-.532v-.109Zm-4.773-.6v-.13l4.773.471v.119Zm4.773-.182v.119l-4.773-.46-.009-.12Zm-4.78-1.375v-.132l4.782.474v.12Zm0 .251v-.13l4.782.482v.109Zm4.782.862v.127l-4.782-.456v-.144Zm-4.782-.6v-.13l4.782.471v.121Zm4.772-.491h.01v.018h-.01v.159l-4.772-.46-.01-.129Zm-4.784-1.315v-.149l4.782.42v.139Zm0 .251v-.119l4.782.422v.119Zm4.782.813v.119l-4.782-.4v-.129Zm-4.782-.552v-.12l4.782.411v.119Zm-.01-.925 4.792.413v.132l-4.792-.411Zm0-.881v-.139l4.783.42.009.119Zm0 .24V11.6l4.792.42v.1Zm4.792.801v.11l-4.792-.401V12.1Zm-4.792-.542v-.13l4.792.41v.119Zm-.01-.9 4.793.422.009.131h-.009l-4.793-.421Zm4.793.169v.112l-4.783-.401-.01.02v-.15Zm-4.793-.549v-.112l4.793.374v.15Zm4.793-.011v.129l-4.793-.35-.01-.13ZM7.355 9.42v-.13l4.803.371v.119Zm0 .259v-.131l4.803.362v.119Zm4.803.752v.11l-4.803-.349v-.121Zm-4.803-.5v-.12l4.803.361v.119Zm4.793-.532.01.121-4.803-.351-.01-.132ZM7.337 7.768l4.813.349v.119l-4.813-.352Zm4.813-.671v.12l-4.813-.35-.01-.13ZM7.317 5.453l4.823.359v.122L8.687 5.67l-1.37-.1Zm4.813-.664.01.109-4.823-.36-.01-.12ZM7.297 3.084a.16.16 0 0 1 .06-.12.2.2 0 0 1 .14-.05h.01l.901.039-.221.462 1.931.13.2-.49 1.631.079a.19.19 0 0 1 .179.179v.04l-1.739-.089-.05.109 1.79.111v.119l-1.841-.1-.039.119 1.881.122v.13l-4.823-.35v-.119l.72.049.049-.1-.769-.05-.01-.11.84.062.05-.1Zm.01.692v-.13l4.823.371v.121Zm4.823.5v.111l-4.823-.35v-.13Zm.01.322h-.01v.05l-4.823-.353v-.128l4.823.362h.01Zm0 .942v.13l-4.823-.36v-.114Zm-4.823-.745V4.68l4.823.349v.12Zm4.823.492v.121l-4.823-.359V4.93Zm0 1.294v.12l-4.813-.359v-.129Zm-4.813-.749v-.136l4.163.32.65.05v.13l-3.232-.24Zm4.183.441.63.049v.121l-4.813-.347v-.13Zm.64.643h-.01v.049l-4.813-.362v-.121l4.813.353h.01Zm0 .951v.12l-4.813-.36v-.121Zm-4.813-.752v-.118l4.813.362v.119Zm4.813.5v.112l-4.813-.35v-.132Zm0 1.535.01.121h-.01l-4.803-.362v-.128Zm0-.261v.12L7.347 8.65v-.111Zm-4.803-.751v-.119l4.803.361v.118Zm4.803.492v.119l-4.803-.341v-.13Zm.039 9.025v.182l-4.773-.662v-.1Zm0-.319v.189l-4.773-.582v-.14Zm-4.773-.965v-.118l4.773.541v.111Zm4.773.674v.159l-4.773-.528v-.161Zm-4.763.68v-.15l4.763.661v.143Zm4.773 1.313-4.773-.821v-.141l4.763.793Zm-.01-.3-4.763-.793v-.089l4.763.661v.065l.01.161Zm4.254-16.559L12.26 2a1.4 1.4 0 0 0-.2.01l-4.614.592-.02.011a.45.45 0 0 0-.279.129.48.48 0 0 0-.15.352l.06 7.461v.01l.089 10.09a.48.48 0 0 0 .4.461l4.363.874c.03 0 .07.01.1.01a.5.5 0 0 0 .33-.121l.05-.049 4.344-2.066a.27.27 0 0 0 .139-.232l.131-16.738v-.031a.585.585 0 0 0-.56-.584"/></svg>

<svg xmlns="http://www.w3.org/2000/svg" fill="#44739e" width="24" height="24" version="1.1" viewBox="0 0 24 24"><path d="m 10.613,19.831 -0.1,-0.013 v 0.088 l 0.107,0.02 0.007,0.086 0.106,0.014 -0.006,-0.089 0.09,0.015 v -0.094 l -0.09,-0.013 -0.008,-0.086 -0.107,-0.021 z M 9.679,19.744 9.953,19.793 V 19.671 L 9.679,19.616 Z m 2.537,1.42 -4.766,-0.885 v -0.14 l 4.75,0.9 h 0.01 m 0,0.391 -4.76,-0.874 v -0.149 l 4.76,0.893 z m -0.069,0.211 A 0.208,0.208 0 0 1 11.97,21.68 L 7.61,20.82 C 7.541,20.8 7.49,20.711 7.46,20.649 l 4.74,0.912 a 0.137,0.137 0 0 1 -0.059,0.082 M 8.6,19.655 a 0.532,0.532 0 0 0 0.38,0.332 l -1.531,-0.28 -0.01,-0.25 z M 7.439,18.734 v -0.109 l 4.76,0.8 v 0.109 z m 3.63,1.1 A 0.607,0.607 0 0 0 10.93,19.573 c -0.052,-0.038 -0.106,-0.075 -0.161,-0.11 l 1.431,0.251 v 0.291 z m -0.439,0.451 c 0.04,0.009 -0.03,0 0,0 a 0.382,0.382 0 0 0 0.41,-0.2 l 0.039,0.009 1.119,0.209 v 0.262 z m -0.211,-0.441 a 0.235,0.235 0 0 1 0.271,-0.26 0.338,0.338 0 0 1 0.26,0.341 0.235,0.235 0 0 1 -0.271,0.228 0.331,0.331 0 0 1 -0.261,-0.308 M 9.549,19.674 a 0.23,0.23 0 0 1 0.258,-0.26 0.336,0.336 0 0 1 0.262,0.341 0.236,0.236 0 0 1 -0.261,0.24 0.327,0.327 0 0 1 -0.259,-0.321 m 2.651,1.064 v 0.151 L 7.45,20.008 V 19.856 Z M 8.578,19.365 7.437,19.176 v -0.282 l 1.471,0.25 a 0.356,0.356 0 0 0 -0.33,0.221 m 0.38,-0.1 a 0.328,0.328 0 0 1 0.26,0.34 0.24,0.24 0 0 1 -0.26,0.241 0.346,0.346 0 0 1 -0.271,-0.321 0.235,0.235 0 0 1 0.271,-0.261 m 3.239,-0.1 V 19.3 l -4.76,-0.813 -0.01,-0.132 z m -0.01,-1.2 v 0.129 l -4.76,-0.651 v -0.01 L 7.417,17.303 Z M 7.407,16 l 4.77,0.526 h 0.01 v 0.019 h -0.01 v 0.1 l -4.77,-0.528 z m 0,-0.647 v -0.119 l 4.77,0.461 v 0.119 z m 4.77,0.863 v 0.171 l -4.77,-0.532 v -0.109 z m -4.77,-0.6 v -0.13 l 4.77,0.471 v 0.119 z m 4.77,-0.182 v 0.119 L 7.407,15.094 7.398,14.974 Z M 7.4,14.06 v -0.131 l 4.779,0.473 v 0.12 z m 0,0.251 v -0.13 l 4.779,0.482 v 0.109 z m 4.779,0.862 V 15.3 L 7.4,14.844 V 14.7 Z M 7.4,14.573 v -0.13 l 4.779,0.471 v 0.121 z m 4.769,-0.491 h 0.01 V 14.1 h -0.01 v 0.159 L 7.4,13.8 7.39,13.671 Z M 7.388,12.768 v -0.149 l 4.779,0.42 v 0.139 z m 0,0.251 V 12.9 l 4.779,0.422 v 0.119 z m 4.779,0.813 v 0.119 l -4.779,-0.4 V 13.422 Z M 7.388,13.28 v -0.12 l 4.779,0.411 v 0.119 z m -0.01,-0.924 4.789,0.412 V 12.9 L 7.378,12.49 Z m 0,-0.881 v -0.139 l 4.78,0.42 0.009,0.119 z m 0,0.24 V 11.6 l 4.789,0.42 v 0.1 z m 4.789,0.8 v 0.11 l -4.789,-0.4 V 12.1 Z M 7.378,11.974 v -0.13 l 4.789,0.41 v 0.119 z m -0.01,-0.9 4.79,0.422 0.009,0.131 h -0.009 l -4.79,-0.421 z m 4.79,0.169 v 0.112 l -4.78,-0.4 -0.01,0.02 v -0.15 z m -4.79,-0.548 v -0.112 l 4.79,0.374 v 0.149 z m 4.79,-0.011 v 0.129 l -4.79,-0.35 -0.01,-0.13 z m -4.8,-1.262 v -0.13 l 4.8,0.37 v 0.119 z m 0,0.258 V 9.55 l 4.8,0.361 v 0.119 z m 4.8,0.752 v 0.11 l -4.8,-0.349 v -0.121 z m -4.8,-0.5 v -0.12 l 4.8,0.361 v 0.119 z m 4.79,-0.531 0.01,0.121 -4.8,-0.351 -0.01,-0.132 z M 7.34,7.771 12.15,8.119 V 8.238 L 7.34,7.887 Z M 12.15,7.1 V 7.22 L 7.34,6.87 7.33,6.74 Z M 7.32,5.457 12.14,5.816 V 5.938 L 8.689,5.674 7.32,5.574 Z M 12.13,4.794 12.14,4.903 7.32,4.543 7.31,4.423 Z M 7.3,3.09 A 0.156,0.156 0 0 1 7.36,2.97 0.208,0.208 0 0 1 7.5,2.92 h 0.01 l 0.9,0.039 -0.22,0.462 1.929,0.13 0.2,-0.49 1.63,0.079 a 0.192,0.192 0 0 1 0.179,0.179 v 0.04 L 10.39,3.27 10.34,3.379 12.129,3.49 v 0.119 l -1.84,-0.1 -0.039,0.119 1.88,0.121 v 0.13 L 7.31,3.53 V 3.411 L 8.03,3.46 8.079,3.36 7.31,3.31 7.3,3.2 8.14,3.262 8.19,3.162 Z M 7.31,3.781 V 3.652 l 4.82,0.37 v 0.121 z m 4.82,0.5 V 4.392 L 7.31,4.042 v -0.13 z m 0.01,0.322 h -0.01 v 0.05 L 7.31,4.3 V 4.172 l 4.82,0.362 h 0.01 z m 0,0.941 v 0.13 L 7.32,5.314 V 5.2 Z M 7.32,4.8 V 4.685 l 4.82,0.349 v 0.12 z m 4.82,0.491 V 5.412 L 7.32,5.054 V 4.935 Z m 0,1.294 V 6.704 L 7.33,6.346 V 6.217 Z M 7.33,5.836 V 5.7 l 4.16,0.32 0.65,0.05 V 6.2 L 8.91,5.96 Z m 4.18,0.441 0.63,0.049 V 6.447 L 7.33,6.1 V 5.97 Z m 0.64,0.642 H 12.14 V 6.968 L 7.33,6.607 V 6.486 l 4.81,0.352 h 0.01 z m 0,0.951 V 7.99 L 7.34,7.63 V 7.509 Z M 7.34,7.118 V 7 l 4.81,0.362 v 0.119 z m 4.81,0.5 V 7.73 L 7.34,7.38 V 7.248 Z m 0,1.534 0.01,0.121 H 12.15 L 7.35,8.911 V 8.783 Z m 0,-0.261 v 0.12 L 7.35,8.652 V 8.541 Z M 7.35,8.14 V 8.022 l 4.8,0.36 V 8.5 Z m 4.8,0.492 V 8.751 L 7.35,8.41 V 8.28 Z m 0.039,9.019 v 0.182 l -4.77,-0.662 v -0.1 z m 0,-0.319 v 0.189 L 7.419,16.939 V 16.8 Z M 7.419,16.368 V 16.25 l 4.77,0.541 v 0.11 z m 4.77,0.673 V 17.2 l -4.77,-0.527 v -0.161 z m -4.76,0.68 v -0.15 l 4.76,0.661 v 0.142 z m 4.77,1.312 -4.77,-0.82 v -0.141 l 4.76,0.792 z m -0.01,-0.3 -4.76,-0.792 v -0.089 l 4.76,0.66 v 0.065 l 0.01,0.161 z M 16.44,2.186 12.26,2.007 a 1.347,1.347 0 0 0 -0.2,0.01 L 7.449,2.608 7.429,2.619 A 0.453,0.453 0 0 0 7.15,2.748 0.478,0.478 0 0 0 7,3.1 l 0.06,7.456 v 0.01 l 0.089,10.083 a 0.48,0.48 0 0 0 0.4,0.461 l 4.36,0.873 c 0.03,0 0.07,0.01 0.1,0.01 a 0.51,0.51 0 0 0 0.33,-0.121 l 0.05,-0.049 4.341,-2.064 a 0.266,0.266 0 0 0 0.139,-0.232 L 17,2.8 V 2.769 A 0.585,0.585 0 0 0 16.44,2.186"/></svg>
